storage/app/icons/phosphoricons/bold/newspaper-bold.svg

<svg xmlns="http://www.w3.org/2000/svg" fill="currentColor" viewBox="0 0 256 256"><path d="M92 108a12 12 0 0 1 12-12h72a12 12 0 0 1 0 24h-72a12 12 0 0 1-12-12m12 52h72a12 12 0 0 0 0-24h-72a12 12 0 0 0 0 24m132-96v120a28 28 0 0 1-28 28H36a32 32 0 0 1-32-32V88a12 12 0 0 1 24 0v92a8 8 0 0 0 16 0V64a20 20 0 0 1 20-20h152a20 20 0 0 1 20 20m-24 4H68v112a32 32 0 0 1-1 8h141a4 4 0 0 0 4-4Z"/></svg>

<svg xmlns="http://www.w3.org/2000/svg" viewBox="0 0 256 256" fill="currentColor"><path d="M92,108a12,12,0,0,1,12-12h72a12,12,0,0,1,0,24H104A12,12,0,0,1,92,108Zm12,52h72a12,12,0,0,0,0-24H104a12,12,0,0,0,0,24ZM236,64V184a28,28,0,0,1-28,28H36A32,32,0,0,1,4,180V88a12,12,0,0,1,24,0v92a8,8,0,0,0,16,0V64A20,20,0,0,1,64,44H216A20,20,0,0,1,236,64Zm-24,4H68V180a32,32,0,0,1-1,8H208a4,4,0,0,0,4-4Z"/></svg>
